X:1
T:Christus, der uns selig macht (Urfassung BWV 620A)
T:Christus, der uns selig macht (Urfassung BWV 620A)
T:Christus, der uns selig macht (Urfassung)
T:In Canone all'Ottava
T:Johann Sebastian Bach BWV 620a
T:Michael Weisse, 1531
C:Johann Sebastian Bach
Z:Michael Weisse, 1531
%%score { ( 1 2 ) | 3 } 4 5
L:1/8
Q:1/4=55
M:4/4
K:C
V:1 treble nm="Organ"
V:2 treble 
V:3 bass 
V:4 bass-8 nm="Organ"
V:5 bass-8 nm="Bass Trombone" snm="B. Trb."
V:1
 e2 e2 e2 e2 | d2 c2 B2 z2 | z4 z2 A2- | A2 ^G2 A2 Bc | d4 c4 | B2 z2 z2 A2- | A2 B2 c>B A2 | %7
 AG F2"^diss. rls" E4 | z2 D4 ^C2 | D2 E^F G4 | F4 E2 z2 | A2 A2 A2 G2 | F4 E4 | D2 z2 G2 A2 | %14
 B2 c2 d4- | d2 e2 d2 c2 | D2 z2 z2 A2- | A2 B2 cB A2- | AG F2 E4 | z2 D4 ^C2 | D2 E^F G2 A2- | %21
 A2 G4 =F2 | E4 z A^GA | BE/^F/ ^GA Bcde | ^d=d[Q:1/4=35]^c=c[Q:1/4=30] !fermata!B4[Q:1/4=25] |] %25
V:2
 z A^GA BE/^F/ GA | BE^DE ^F^G A2 | ^D3 E/^F/ B, E2 =D | ^C=C B,/C/D- DC DC | B,E/D/ CB, A, EDE | %5
 FB,/C/ DE ^F^G A/=G/=F/E/ | D/E/F/D/ ^G,2 A,ECD | EA, D4 z C | B,^C DA,[I:staff +1] _B,A,^G,=G, | %9
 ^F,=F,E,_E, D,2[I:staff -1] z E- | ED/^C/ D2- DC/D/ E/D/C/=B,/ | A, D^CD EA,/B,/ =C^C- | %12
 _D=B,/^C/ =D2- D^C=B,C | DA,/B,/ ^CD E2 ^F2- | F G2 ^F Gd^c=c | B/A/ G2 A/G/ ^F=FE_E | %16
 DE/D/ ^C=C B, E^DE | ^FB,/C/ DE A,B, CA,/B,/ | C^C D4 z =C | B,^C DA, _B,A,^G,=G, | %20
[I:staff +1] ^F,=F,E,_E, D, G,2 F,/=E,/ | F,2[I:staff -1] z C B,_B,A,=B, | ^CA,/B,/ =C^C D4- | %23
 DC DE/^F/ ^GA^G=G | ^F=FE^D E4 |] %25
V:3
 z2 z A,^G,A, B,E,/^F,/ | ^G,2 A,2 z E,^D,E, | ^F,"^!!#"^G, A,3 =G,F,=F, | E,^D, E,3 E,=D,E, | %4
 F,B,,/C,/ D,E, ^F,^G, A,2- | A,^G,^F,G, A, E,D,E, | F,B,,/C,/ D,E, A,,3 B,, | %7
 C,^C,D,A, ^G,A,/B,/ =CE, | D,E, F,3/2E,/4F,/4 G,F, E,2 | z D,^C,=C, B,,_B,, A,,2 | %10
 z A,G,A, _B, E,D,E, | F,G,/F,/ E,D, ^C,D, E,2- | E,A,_B,A, G,A,/B,/ E,F,/G,/ | %13
 A,G,/F,/ E, D,2 =C,"^!!!" =B,,C, | D,D/C/ B,A, B,3 A,- | A,B,/C/ B,_B, A, A,^G,"^!!"A, | %16
 B,E,/^F,/ ^G,A,- A,G, A,B,/C/ | ^D,A,^G,=G, ^F,=F,E,=G, | F,E,D,A, ^G,A,/B,/ CE, | %19
 D,E, F,E,/F,/ G,F, E,2 | z D,^C,=C, B,,_B,, A,,2 | z D,^C,D, E,A,,/_B,,/ =C,D, | %22
 E,F,/G,/ A,2- A,B,/=C/ B,A, | ^G,A,B,C =DC B,2 | B,A,/^G,/ A,2- A,G,/^F,/ !fermata!G,2 |] %25
V:4
 z4 E,2 E,2 | E,2 E,2 D,2 C,2 | B,,4 z4 | z4 A,,4- | A,,2 ^G,,2 A,,2 B,,C, | D,4 C,4 | %6
 B,,2 z2 z2 A,,2- | A,,2 B,,2 C,B,, A,,2 | A,,G,, F,,2 E,,2 z2 | D,,6 ^C,,2 | D,,2 E,,F,, G,,4 | %11
 F,,4 E,,2 z2 | A,,2 A,,2 A,,2 G,,2 | F,,4 E,,4 | D,,2 z2 G,,2 A,,2 | B,,2 C,2 D,4- | %16
 D,2 E,2 D,2 C,2 | B,,2 z2 z2 A,,2- | A,,2 B,,2 C,B,, A,,2 | A,,G,, F,,2 E,,2 z2 | D,,6 ^C,,2 | %21
 D,,2 E,,^F,, G,,2 A,,2- | A,,2 G,,2 F,,4 | E,,8- | E,,8 |] %25
V:5
 z4 E,2 E,2 | E,2 E,2 D,2 C,2 | B,,4 z4 | z4 A,,4- | A,,2 ^G,,2 A,,2 B,, C, | D,4 C,4 | %6
 B,,2 z2 z2 A,,2- | A,,2 B,,2 C, B,, A,,2 | A,, G,, F,,2 E,,2 z2 | D,,6 ^C,,2 | D,,2 E,, F,, G,,4 | %11
 F,,4 E,,2 z2 | A,,2 A,,2 A,,2 G,,2 | F,,4 E,,4 | D,,2 z2 G,,2 A,,2 | B,,2 C,2 D,4- | %16
 D,2 E,2 D,2 C,2 | B,,2 z2 z2 A,,2- | A,,2 B,,2 C, B,, A,,2 | A,, G,, F,,2 E,,2 z2 | D,,6 ^C,,2 | %21
 D,,2 E,, ^F,, G,,2 A,,2- | A,,2 G,,2 F,,4 | E,,8- | E,,8 |] %25

